img/players.svg

<?xml version="1.0" encoding="UTF-8"?>
<svg width="96px" height="96px" viewBox="0 0 96 96" version="1.1" xmlns="http://www.w3.org/2000/svg" xmlns:xlink="http://www.w3.org/1999/xlink">
    <!-- Generator: Sketch 43.2 (39069) - http://www.bohemiancoding.com/sketch -->
    <title>players</title>
    <desc>Created with Sketch.</desc>
    <defs>
        <path d="M89.7360112,53.179871 C87.7571376,52.1814606 83.2929077,50.1809238 77.6398676,47.6477364 C65.6960404,42.2939778 49.3375171,34.9619794 43.4516684,31.2693477 C42.2529514,30.5186818 41.1768305,29.826236 40.2047306,29.2019198 C34.5380687,25.5625532 31.6935927,23.7403924 28.7599559,25.9787639 C26.7736523,27.4949602 24.7192397,29.0607055 24.6040737,31.1690111 C24.5433948,32.2888163 25.0251106,33.3442078 26.0355993,34.3079339 C27.6751667,35.869963 30.1394711,38.0934698 31.8545774,39.6270083 C28.7611943,41.203902 25.9390085,41.9372257 24.3960319,41.9372257 C16.7121078,41.9372257 15.7796348,39.4411999 14.8768821,37.0281685 C14.2614252,35.3794289 13.3301905,32.8883579 9.96437173,32.8883579 C5.35649395,32.8883579 1,43.9600595 1,55.6709419 C1,65.3676615 4.16520709,67.5849748 9.54581148,68.0755089 L9.90988459,69.919834 C9.98913861,70.5379565 10.5154348,71 11.1383218,71 L15.5468262,71 C16.1697132,71 16.6960093,70.5379565 16.7752634,69.919834 L17.1219997,68.2092909 L23.7855284,68.2092909 L24.1322647,69.919834 C24.2115187,70.5379565 24.7378148,71 25.3607018,71 L29.7692062,71 C30.3920932,71 30.9183894,70.5379565 30.9976434,69.919834 L31.3443797,68.2092909 L50.4309748,68.2092909 L50.7777111,69.919834 C50.8569651,70.5379565 51.3832612,71 52.0061482,71 L56.4146526,71 C57.0375396,71 57.5638358,70.5379565 57.6430898,69.919834 L57.9898261,68.2092909 L64.6533548,68.2092909 L65.0000911,69.919834 C65.0793451,70.5379565 65.6056413,71 66.2285283,71 L70.6370327,71 C71.2599197,71 71.7862159,70.5379565 71.8654699,69.919834 L72.2122062,68.2092909 L78.8757349,68.2092909 L79.2224712,69.919834 C79.3017252,70.5379565 79.8280214,71 80.4509084,71 L84.8594128,71 C85.4822998,71 86.0085959,70.5379565 86.08785,69.919834 L86.440778,68.1671743 C90.9087229,67.9578302 94.0268729,65.9275641 94.815698,62.6102653 C95.6627252,59.0600866 93.5253436,55.0936972 89.7360112,53.179871 Z M28.5964945,31.61619 C28.4602767,31.4861241 28.3834994,31.3907425 28.342634,31.3312838 C28.6410749,30.7428906 30.2880723,29.486826 31.0112652,28.9343558 C31.8434323,28.2964137 33.9312802,29.58964 38.197375,32.3284554 C38.7459614,32.6802526 39.3267447,33.053108 39.94344,33.4470218 C38.4809558,35.0945227 36.8500568,36.4831306 35.1968677,37.6289489 C33.5721605,36.1833598 30.4800157,33.4123376 28.5964945,31.61619 Z M10.0646776,36.6045254 C10.6590827,36.6094803 10.7853938,36.6924747 11.3971357,38.3300658 C12.7803658,42.0363235 14.9251775,45.6546319 24.3947936,45.6546319 C28.7958679,45.6546319 37.4580837,42.1044532 43.1519891,35.4128744 C47.2397624,37.735479 53.928058,40.9400541 60.9804267,44.1879845 C61.9624335,47.0271364 61.597122,49.8266492 59.8696322,52.5258255 C56.030766,58.5187649 46.3171962,62.9360493 37.3986432,64.4918847 L27.4287362,64.4918847 C26.815756,57.7718152 22.8926824,52.077408 15.9703398,47.943791 C12.1871991,45.6843612 8.44492372,44.435729 6.34469241,43.8473358 C7.59541978,39.6047113 9.24241722,36.9934843 10.0646776,36.6045254 Z M13.6100563,64.4931234 C6.59855292,64.4931234 4.71379345,64.4931234 4.71379345,55.6709419 C4.71379345,52.1133309 5.09454236,49.3411764 5.69266248,46.6506711 C10.3277838,47.9773429 23.2180921,52.4316826 24.488633,64.4931234 L13.6100563,64.4931234 Z M91.2034487,61.7505918 C90.7886035,63.4934744 88.7787713,64.4931234 85.6903415,64.4931234 L47.144006,64.6939748 C53.5239539,62.318105 59.4744891,58.906756 62.426701,54.2962309 C64.1380924,51.6243065 64.7585027,48.7826771 64.3139372,45.9336154 C68.5391667,47.8610676 72.3162271,49.3323989 76.1204196,51.0381198 C81.5072157,53.4523899 86.1584356,55.5371599 88.0617702,56.4971698 C90.296981,57.625646 91.6480142,59.8838371 91.2034487,61.7505918 Z" id="path-1"></path>
    </defs>
    <g id="Page-1" stroke="none" stroke-width="1" fill="none" fill-rule="evenodd">
        <g id="players">
            <g id="Shape" fill-rule="nonzero">
                <use fill="#19A974" fill-rule="evenodd" xlink:href="#path-1"></use>
                <path stroke="#19A974" stroke-width="1" d="M30.9697139,39.5058892 C28.4023982,40.7295778 25.8942724,41.4372257 24.3960319,41.4372257 C18.3649702,41.4372257 16.6422146,40.2912907 15.4321501,37.0847632 C15.3886932,36.9692734 15.3886932,36.9692734 15.3451827,36.8529699 C14.200085,33.7853821 12.9688984,32.3883579 9.96437173,32.3883579 C4.95291727,32.3883579 0.5,43.705215 0.5,55.6709419 C0.5,64.567529 2.99679026,67.8598979 9.12704309,68.5358916 L9.41935069,70.0166663 C9.52517057,70.8509027 10.2637165,71.5 11.1383218,71.5 L15.5468262,71.5 C16.4214314,71.5 17.1599774,70.8509027 17.2712034,69.9834221 L17.5304955,68.7092909 L23.3767121,68.7092909 L23.6422309,70.0191665 C23.7475506,70.8509027 24.4860966,71.5 25.3607018,71.5 L29.7692062,71.5 C30.6438115,71.5 31.3823575,70.8509027 31.4935835,69.9834221 L31.7528756,68.7092909 L50.0221585,68.7092909 L50.2876773,70.0191665 C50.392997,70.8509027 51.131543,71.5 52.0061482,71.5 L56.4146526,71.5 C57.2892579,71.5 58.0278038,70.8509027 58.1390299,69.9834221 L58.398322,68.7092909 L64.2445386,68.7092909 L64.5100574,70.0191665 C64.6153771,70.8509027 65.3539231,71.5 66.2285283,71.5 L70.6370327,71.5 C71.5116379,71.5 72.2501839,70.8509027 72.36141,69.9834221 L72.6207021,68.7092909 L78.4669186,68.7092909 L78.7324375,70.0191665 C78.8377572,70.8509027 79.5763031,71.5 80.4509084,71.5 L84.8594128,71.5 C85.734018,71.5 86.472564,70.8509027 86.58379,69.9834221 L86.8545936,68.6436015 C91.3420168,68.3237685 94.4834455,66.1688229 95.3021344,62.7259356 C96.2058038,58.9383509 93.947807,54.7469128 89.9614215,52.7335637 L89.9612359,52.73347 C88.2744754,51.8824409 85.7370105,50.7282465 77.8443328,47.1914536 C72.3229972,44.7165435 69.6950639,43.5339057 66.4451483,42.0544765 C65.6901182,41.710771 64.9552069,41.3752102 64.2377988,41.046549 C53.9768131,36.3457542 47.0788773,32.9547124 43.7173907,30.8458011 C42.7438485,30.2361451 42.1564199,29.8611262 40.474924,28.7812115 C33.1988171,24.1081921 31.2767345,23.429534 28.4566584,25.5812585 C28.3554074,25.6585445 28.3554074,25.6585445 28.2539632,25.7360517 C25.3383964,27.9647538 24.2094325,29.226596 24.104818,31.1417393 C24.0356864,32.4175367 24.5798573,33.6104986 25.6905172,34.6697603 C26.9814592,35.8996513 28.8542434,37.6092802 30.9697139,39.5058892 Z M28.986804,31.29746 C29.1650362,31.1011213 29.444752,30.8379871 29.7995135,30.5359529 C29.9069495,30.4444848 30.0206174,30.3498306 30.1402765,30.2520442 C30.4963207,29.9610818 30.7891863,29.7332133 31.3147962,29.331683 C31.7628066,28.9882376 33.2022272,29.7157623 37.9272527,32.7492094 C38.342875,33.0157909 38.5733008,33.1635813 38.7750525,33.2928966 C38.9156177,33.3829935 39.0478315,33.4676921 39.1748088,33.5489805 C37.9928355,34.8171344 36.6671772,35.9682157 35.2333557,36.9919673 C32.7981383,34.8222131 30.4777459,32.717087 28.986804,31.29746 Z M10.1853522,37.1095716 C10.4147941,37.1357417 10.4810675,37.3066214 10.92875,38.5050369 C12.9121291,43.8193471 16.1436365,46.1546319 24.3947936,46.1546319 C29.6590141,46.1546319 38.053282,41.9778117 43.2625785,36.0493648 C46.9575105,38.1200495 52.7374688,40.9395985 60.5748202,44.5516297 C61.4230089,47.1801617 61.0505656,49.7530903 59.4484977,52.2562968 C55.9497078,57.7183354 46.8946287,62.3277654 37.3127162,63.9993235 L27.8801503,63.9922244 C27.1183271,57.2903486 23.1123954,51.6262466 16.2266848,47.5145041 C13.193099,45.7027359 10.0004805,44.3954084 6.97059282,43.5066635 C7.99949612,40.2114946 9.39991897,37.6276333 10.1853522,37.1095716 Z M6.06780984,47.2811729 C9.63236243,48.3441644 13.0154956,49.8096753 16.064627,51.9552679 C20.4462168,55.0384762 23.2358852,59.0007019 23.9242629,63.9931234 L13.6100563,63.9931234 L13.6100563,63.9931234 C5.91267985,63.9931234 5.21379345,63.4212201 5.21379345,55.6709419 C5.21379345,52.6092612 5.4907695,50.0250625 6.06780984,47.2811729 Z M49.7897708,64.1801823 C55.8500303,61.6081087 60.3991532,58.389913 62.8477755,54.5658533 C64.4352423,52.0874072 65.1311272,49.4400704 64.9142435,46.7540964 C65.9319244,47.2110158 66.9860434,47.6708823 68.1743962,48.1787805 C69.0795538,48.565642 72.3599215,49.9500475 72.0423252,49.815571 C73.3266383,50.3593742 74.3106704,50.7826917 75.2669391,51.2054737 C75.4869011,51.3027226 75.7029451,51.3988936 75.9158524,51.4943569 C83.6019936,54.9391542 86.2445233,56.1405816 87.8365993,56.9435979 C89.88148,57.9759834 91.1022894,60.0171221 90.7170515,61.6347569 L90.7170377,61.6348151 C90.3680588,63.1009743 88.5745634,63.9931234 85.6903415,63.9931234 L49.7897708,64.1801823 Z"></path>
            </g>
            <path d="M87.0797301,70.0470102 C86.9364951,71.1641367 85.9854458,72 84.8594128,72 L80.4509084,72 C79.3248753,72 78.373826,71.1641367 78.2424037,70.1184989 L78.0581024,69.2092909 L73.0285292,69.2092909 L72.85735,70.0470102 C72.7141151,71.1641367 71.7630658,72 70.6370327,72 L66.2285283,72 C65.1024953,72 64.1514459,71.1641367 64.0200237,70.1184989 L63.8357223,69.2092909 L58.8061491,69.2092909 L58.63497,70.0470102 C58.491735,71.1641367 57.5406857,72 56.4146526,72 L52.0061482,72 C50.8801152,72 49.9290659,71.1641367 49.7976436,70.1184989 L49.6133422,69.2092909 L32.1607027,69.2092909 L31.9895236,70.0470102 C31.8462886,71.1641367 30.8952393,72 29.7692062,72 L25.3607018,72 C24.2346688,72 23.2836195,71.1641367 23.1521972,70.1184989 L22.9678958,69.2092909 L17.9383227,69.2092909 L17.7671435,70.0470102 C17.6239085,71.1641367 16.6728592,72 15.5468262,72 L11.1383218,72 C10.0122887,72 9.06123941,71.1641367 8.92881679,70.1134986 L8.70682118,68.9889111 C2.5717149,68.1890218 0,64.6355259 0,55.6709419 C0,43.4503201 4.54936038,31.8883579 9.96437173,31.8883579 C13.2396697,31.8883579 14.603196,33.4355475 15.8134833,36.6777714 C15.8569122,36.7938562 15.8569122,36.7938562 15.8999483,36.9082277 C17.0352602,39.9166697 18.5695258,40.9372257 24.3960319,40.9372257 C25.6817119,40.9372257 27.8116717,40.3688173 30.0693337,39.3694323 C28.18365,37.6737282 26.5243718,36.1547694 25.3454351,35.0315867 C24.1348675,33.8770408 23.5279621,32.5465489 23.6055623,31.1144676 C23.7214762,28.99247 24.9133466,27.6603173 27.9503111,25.338817 C28.0519899,25.2611305 28.0519899,25.2611305 28.1533608,25.183753 C29.8562476,23.8844465 31.6360667,23.6825802 33.7903994,24.4432422 C35.4145255,25.0166964 36.778266,25.8128257 40.7451174,28.3605031 C42.4249688,29.4393616 43.0114023,29.8137453 43.983113,30.4222546 C47.3187752,32.5149643 54.2071192,35.9012908 64.4460472,40.5919804 C65.1630822,40.9204707 65.8976302,41.2558657 66.6523044,41.5994091 C69.9010561,43.0783085 72.5283847,44.2606742 78.048798,46.7351708 C85.954023,50.2775863 88.4891549,51.4307195 90.1864607,52.2870691 C94.3698429,54.3999126 96.7489779,58.816215 95.7885708,62.841606 C94.9375913,66.4202869 91.7581609,68.6822802 87.2697116,69.1106922 L87.0797301,70.0470102 Z M37.6571304,33.1699634 C34.9731176,31.4468381 33.8298162,30.7449896 32.8655117,30.2576022 C32.3462892,29.9951722 31.9573141,29.843529 31.693011,29.7917551 C31.5686683,29.7673978 31.5681621,29.7674688 31.6183272,29.7290102 C31.0969097,30.1273378 30.8072044,30.3527473 30.4566697,30.6392074 C30.3395119,30.7349498 30.228406,30.8274705 30.123641,30.9166646 C29.9672309,31.0498278 29.826025,31.1755873 29.7044308,31.2883829 C31.1228721,32.6246484 33.1388874,34.4531939 35.2657105,36.3509255 C36.3855798,35.5264002 37.4343994,34.6217526 38.3938909,33.6424696 C38.2155133,33.5281084 37.9989248,33.3891915 37.6571304,33.1699634 Z M6.97059282,43.5066635 C10.0004805,44.3954084 13.193099,45.7027359 16.2266848,47.5145041 C23.1123954,51.6262466 27.1183271,57.2903486 27.8801503,63.9922244 L37.3127162,63.9993235 C46.8946287,62.3277654 55.9497078,57.7183354 59.4484977,52.2562968 C61.0505656,49.7530903 61.4230089,47.1801617 60.5748202,44.5516297 C52.7374688,40.9395985 46.9575105,38.1200495 43.2625785,36.0493648 C38.053282,41.9778117 29.6590141,46.1546319 24.3947936,46.1546319 C16.1436365,46.1546319 12.9121291,43.8193471 10.92875,38.5050369 C10.4810675,37.3066214 10.4147941,37.1357417 10.1853522,37.1095716 C9.39991897,37.6276333 7.99949612,40.2114946 6.97059282,43.5066635 Z M5.71379345,55.6709419 C5.71379345,59.8760041 6.15528556,61.7894428 7.16590673,62.6164408 C8.06000802,63.3480897 9.28331765,63.4931234 13.6100563,63.4931234 L23.3404099,63.4931234 C22.5448508,58.916819 19.8839216,55.2541869 15.7768885,52.364177 C12.9282779,50.3596853 9.77311728,48.9546568 6.44794527,47.9196897 C5.95210083,50.4340202 5.71379345,52.8447409 5.71379345,55.6709419 Z M85.6903415,63.4931234 C88.3702411,63.4931234 89.9474987,62.7085387 90.2306266,61.5190383 C90.5566221,60.1501653 89.4656894,58.3261747 87.6114285,57.3900261 C86.02991,56.5923348 83.3845025,55.389599 75.7112852,51.9505939 C75.4991856,51.8554929 75.2839367,51.7596757 75.0647593,51.6627738 C74.1112889,51.2412289 73.1294737,50.8188651 71.8473714,50.275998 C72.1659572,50.4108934 68.8842822,49.0259362 67.9778929,48.6385483 C67.072702,48.2516727 66.2450006,47.8925066 65.4517759,47.5412164 C65.486441,50.0529074 64.7519312,52.5200026 63.26885,54.8354758 C61.0595105,58.2858431 57.2156939,61.233632 52.1414138,63.6679232 L85.6903415,63.4931234 Z" id="Shape" fill="#19A974"></path>
        </g>
    </g>
</svg>

<svg width="96" height="96" viewBox="0 0 96 96" xmlns="http://www.w3.org/2000/svg" xmlns:xlink="http://www.w3.org/1999/xlink"><title>players</title><defs><path d="M89.736 53.18c-1.979-.999-6.443-3-12.096-5.532-11.944-5.354-28.302-12.686-34.188-16.379-1.199-.75-2.275-1.443-3.247-2.067-5.667-3.64-8.511-5.462-11.445-3.223-1.986 1.516-4.04 3.082-4.156 5.19-.06 1.12.421 2.175 1.432 3.139 1.64 1.562 4.103 3.785 5.819 5.319-3.094 1.577-5.916 2.31-7.459 2.31-7.684 0-8.616-2.496-9.52-4.909-.615-1.649-1.546-4.14-4.912-4.14C5.356 32.888 1 43.96 1 55.671c0 9.697 3.165 11.914 8.546 12.405l.364 1.844c.08.618.605 1.08 1.228 1.08h4.409c.623 0 1.149-.462 1.228-1.08l.347-1.71h6.664l.346 1.71c.08.618.606 1.08 1.229 1.08h4.408c.623 0 1.15-.462 1.229-1.08l.346-1.71h19.087l.347 1.71c.079.618.605 1.08 1.228 1.08h4.409c.623 0 1.149-.462 1.228-1.08l.347-1.71h6.663L65 69.92c.08.618.606 1.08 1.229 1.08h4.408c.623 0 1.15-.462 1.228-1.08l.347-1.71h6.664l.346 1.71c.08.618.606 1.08 1.229 1.08h4.408c.623 0 1.15-.462 1.229-1.08l.353-1.753c4.468-.21 7.586-2.24 8.375-5.557.847-3.55-1.29-7.516-5.08-9.43zm-61.14-21.564a1.905 1.905 0 0 1-.253-.285c.298-.588 1.945-1.844 2.668-2.397.832-.638 2.92.656 7.186 3.394l1.746 1.119a26.628 26.628 0 0 1-4.746 4.182c-1.625-1.446-4.717-4.217-6.6-6.013zm-18.531 4.989c.594.004.72.087 1.332 1.725 1.383 3.706 3.528 7.325 12.998 7.325 4.4 0 13.063-3.55 18.757-10.242 4.088 2.322 10.776 5.527 17.828 8.775.982 2.84.617 5.639-1.11 8.338-3.84 5.993-13.553 10.41-22.471 11.966h-9.97c-.613-6.72-4.536-12.415-11.459-16.548-3.783-2.26-7.525-3.508-9.625-4.097 1.25-4.242 2.897-6.854 3.72-7.242zm3.545 27.888c-7.011 0-8.896 0-8.896-8.822 0-3.558.38-6.33.979-9.02 4.635 1.326 17.525 5.78 18.796 17.842H13.61zm77.593-2.742c-.414 1.742-2.424 2.742-5.513 2.742l-38.546.201c6.38-2.376 12.33-5.787 15.283-10.398 1.711-2.672 2.332-5.513 1.887-8.362 4.225 1.927 8.002 3.398 11.806 5.104 5.387 2.414 10.038 4.5 11.942 5.46 2.235 1.128 3.586 3.386 3.141 5.253z" id="a"/></defs><g fill="none" fill-rule="evenodd"><g fill-rule="nonzero"><use fill="#19A974" fill-rule="evenodd" xlink:href="#a"/><path stroke="#19A974" d="M30.97 39.506c-2.568 1.224-5.076 1.931-6.574 1.931-6.031 0-7.754-1.146-8.964-4.352l-.087-.232c-1.145-3.068-2.376-4.465-5.38-4.465C4.952 32.388.5 43.705.5 55.671c0 8.897 2.497 12.189 8.627 12.865l.292 1.48c.106.835.845 1.484 1.72 1.484h4.408c.874 0 1.613-.65 1.724-1.517l.26-1.274h5.846l.265 1.31c.106.832.844 1.481 1.719 1.481h4.408a1.74 1.74 0 0 0 1.725-1.517l.259-1.274h18.27l.265 1.31c.105.832.844 1.481 1.718 1.481h4.409c.874 0 1.613-.65 1.724-1.517l.26-1.274h5.846l.265 1.31c.105.832.844 1.481 1.719 1.481h4.408c.875 0 1.613-.65 1.724-1.517l.26-1.274h5.846l.265 1.31c.106.832.844 1.481 1.719 1.481h4.408c.875 0 1.614-.65 1.725-1.517l.27-1.34c4.488-.32 7.63-2.474 8.448-5.917.904-3.788-1.354-7.98-5.34-9.992-1.688-.852-4.225-2.006-12.118-5.543a1898.877 1898.877 0 0 1-13.606-6.144c-10.261-4.701-17.16-8.092-20.52-10.201-.974-.61-1.562-.985-3.243-2.065-7.276-4.673-9.198-5.351-12.018-3.2l-.203.155c-2.916 2.229-4.045 3.49-4.15 5.406-.068 1.276.476 2.468 1.587 3.528 1.29 1.23 3.163 2.94 5.279 4.836zm-1.983-8.209a9.32 9.32 0 0 1 .813-.761c.107-.092.22-.186.34-.284.356-.29.65-.519 1.175-.92.448-.344 1.887.384 6.612 3.417a3436.378 3436.378 0 0 0 1.248.8 26.169 26.169 0 0 1-3.942 3.443c-2.435-2.17-4.755-4.275-6.246-5.695zM10.185 37.11c.23.026.296.197.744 1.395 1.983 5.314 5.215 7.65 13.466 7.65 5.264 0 13.658-4.177 18.868-10.106 3.695 2.071 9.474 4.89 17.312 8.503.848 2.628.476 5.201-1.127 7.704C55.95 57.718 46.895 62.328 37.313 64l-9.433-.007c-.762-6.702-4.768-12.366-11.653-16.477-3.034-1.812-6.227-3.12-9.256-4.008 1.028-3.296 2.429-5.88 3.214-6.397zM6.068 47.28c3.564 1.063 6.947 2.529 9.997 4.674 4.381 3.083 7.17 7.046 7.86 12.038H13.61c-7.697 0-8.396-.572-8.396-8.322 0-3.062.277-5.646.854-8.39zm43.722 16.9c6.06-2.573 10.61-5.791 13.058-9.615 1.587-2.479 2.283-5.126 2.066-7.812 1.018.457 2.072.917 3.26 1.425.906.387 4.186 1.771 3.868 1.637a218.434 218.434 0 0 1 3.874 1.678c7.686 3.445 10.329 4.647 11.92 5.45 2.045 1.032 3.266 3.073 2.881 4.69-.349 1.467-2.142 2.36-5.027 2.36l-35.9.186z"/></g><path d="M87.08 70.047A2.238 2.238 0 0 1 84.86 72h-4.41c-1.125 0-2.076-.836-2.208-1.882l-.184-.909h-5.03l-.17.838A2.238 2.238 0 0 1 70.636 72h-4.408c-1.127 0-2.078-.836-2.209-1.882l-.184-.909h-5.03l-.171.838A2.238 2.238 0 0 1 56.415 72h-4.409c-1.126 0-2.077-.836-2.208-1.882l-.185-.909H32.161l-.171.838A2.238 2.238 0 0 1 29.77 72h-4.41c-1.125 0-2.076-.836-2.208-1.882l-.184-.909h-5.03l-.17.838A2.238 2.238 0 0 1 15.546 72h-4.409c-1.126 0-2.077-.836-2.21-1.887l-.221-1.124C2.572 68.189 0 64.636 0 55.67c0-12.22 4.55-23.783 9.964-23.783 3.276 0 4.64 1.548 5.85 4.79l.086.23c1.135 3.009 2.67 4.03 8.496 4.03 1.286 0 3.416-.57 5.673-1.569a240.696 240.696 0 0 1-4.724-4.337c-1.21-1.155-1.817-2.485-1.74-3.918.116-2.122 1.308-3.454 4.345-5.775l.203-.155c1.703-1.3 3.483-1.501 5.637-.74 1.625.573 2.988 1.369 6.955 3.917a291.133 291.133 0 0 0 3.238 2.061c3.336 2.093 10.224 5.48 20.463 10.17a1899.446 1899.446 0 0 0 13.603 6.143c7.905 3.543 10.44 4.696 12.137 5.552 4.184 2.113 6.563 6.53 5.603 10.555-.851 3.578-4.03 5.84-8.52 6.269l-.19.936zM37.657 33.17c-2.684-1.723-3.827-2.425-4.791-2.912-.52-.263-.909-.414-1.173-.466-.124-.025-.125-.025-.075-.063a41.43 41.43 0 0 0-1.161.91 16.828 16.828 0 0 0-.753.649 303.265 303.265 0 0 0 5.562 5.063 25.752 25.752 0 0 0 3.128-2.709 4689.8 4689.8 0 0 1-.737-.472zM6.971 43.507c3.03.888 6.222 2.196 9.256 4.008 6.885 4.111 10.891 9.775 11.653 16.477l9.433.007c9.582-1.671 18.637-6.28 22.135-11.743 1.603-2.503 1.975-5.076 1.127-7.704-7.838-3.612-13.617-6.432-17.312-8.503-5.21 5.929-13.604 10.106-18.868 10.106-8.251 0-11.483-2.336-13.466-7.65-.448-1.198-.514-1.37-.744-1.395-.785.518-2.185 3.1-3.214 6.397zM5.714 55.67c0 4.205.441 6.118 1.452 6.945.894.732 2.117.877 6.444.877h9.73c-.795-4.576-3.456-8.239-7.563-11.129-2.849-2.004-6.004-3.41-9.33-4.444-.495 2.514-.733 4.925-.733 7.75zm79.976 7.822c2.68 0 4.257-.784 4.54-1.974.327-1.369-.764-3.193-2.619-4.129-1.581-.798-4.226-2-11.9-5.44l-.646-.287a217.97 217.97 0 0 0-3.218-1.387c.319.135-2.963-1.25-3.87-1.637a207.48 207.48 0 0 1-2.525-1.098c.034 2.512-.7 4.979-2.183 7.294-2.21 3.45-6.053 6.399-11.128 8.833l33.55-.175z" fill="#19A974"/></g></svg>
